X: 18
T:Cantiga 169 'a la Arrixaca' en do (?)
M:3/4
L:1/4
Q:100
C:Alfonso X el Sario
S:Jose Mª Hernansáez
R:Cantiga
N:En las marcas de la partitura van tresillos
K:CMin
"primera parte" 
K:Cmin
C | DCB, | CCD | F2 F| GG A| GGF|
EFD| E3| F/2G/2 GF |E F/2E/2 D| C   B,2 | B, B, C |
 EEC | DCB, | C2 "segunda parte" :| B | G B2 | cBA |G2F | G
G A | "aqui" (3GFE F| A G F | G2 B | G B2 | cBA | G2F |
GG A| "aqui" (3GFE F| AGF| G2 "tercera parte" C | DCB, | CCD | F2
F | GG A| "aqui" (3GFG E | E F D | E3 | F/2 G/2 GF | G F/2E/2
D | C B,2 | B, B, C | E E C | D C C | "D.C." C2 ||

